**kern	**kern	**kern	**kern
*staff3	*staff4	*staff1	*staff2
*clefF4	*clefF4	*clefG2	*clefG2
*k[f#c#]	*k[f#c#]	*k[f#c#]	*k[f#c#]
*M2/4	*M2/4	*M2/4	*M2/4
*D:	*D:	*D:	*D:
=-	=-	=-	=-
*M3/4	*M3/4	*M3/4	*M3/4
8DL	2DD	4F# 4f#	2.r
8AAJ	.	.	.
8DL	.	4F# 4A 4f#	.
8AAJ	.	.	.
8C#L	4DD	4G 4A 4e	.
8AAJ	.	.	.
=404	=404	=404	=404
8DL	4DD	4.F# 4.A 4.d	2.r
8AAJ	.	.	.
4r	8FF#L	.	.
.	8DDJ	8D 8d	.
4r	8CCL 8EE	8DL 8d	.
.	8AAAJ 8DD 8AA	8DJ 8F# 8c 8d	.
=405	=405	=405	=405
2.r	8..GGGL 8..DD 8..GG	8..DL 8..G 8..B 8..d	2.r
.	32GGJkk 32D 32G	32dJkk 32b	.
.	8.GG 8.D 8.G	8.d 8.b 8.dd	.
.	16r	32r	.
.	.	32gg' 32bb'	.
.	8r	16ddd'	.
.	.	16r	.
.	16.r	16.r	.
.	32GGG 32DD 32GG	32D 32B 32d	.
=406	=406	=406	=406
2.r	8..FFF#L 8..DD 8..FF#	8..DL 8..A 8..d	2.r
.	32FF#Jkk 32AA 32F#	32dJkk 32a	.
.	8.FF# 8.AA 8.F#	8.d 8.a 8.dd	.
.	16r	32r	.
.	.	32aa'	.
.	8r	16ddd'	.
.	.	16r	.
.	16.r	16.r	.
.	32AA	32A	.
=407	=407	=407	=407
8r	4.AA	4.A	2.r
(16.DDLL 16.F#	.	.	.
32EEJJk 32E	.	.	.
8FF#) 8D	.	.	.
8r	8AA	(16ALL	.
.	.	16f#'JJ)	.
4r	8AAL	(16f#LL	.
.	.	16d')	.
.	8DDJ 8AA 8D	(16F# 16A 16d	.
.	.	16g'JJ)	.
=408	=408	=408	=408
8r	8EE 8AA 8C#	8G 8A 8g	2r
(16.EELL 16.G	8r	4A	.
32FF#JJk) 32F#	.	.	.
8GG 8AA 8E	8r	.	.
8r	(8AA'	(16ALL	.
.	.	16gJJ)	.
4r	8AA'L)	(16gLL	8r
.	.	16e)	.
.	8GGJ 8AA 8C#	(16e	[8CC#
.	.	16aJJ)	.
=409	=409	=409	=409
2.r	8FF#L 8AA 8D	(16aLL	8CC#]
.	.	16f#)	.
.	8AAJ 8BB 8D#	(16f#	4DD
.	.	16bJJ)	.
.	8GGL 8BB 8E	(16bLL	.
.	.	16e)	.
.	8GGJ 8AA 8E	(16e	8EE
.	.	16cc#JJ)	.
.	8FF# 8AA 8D	(16f#LL	8FF#
.	.	16ddJJ)	.
.	8r	8r	8r
=410	=410	=410	=410
8r	8r	8r	8r
8F#L	[4AA	[4a	8FF#L
8E	.	.	8EE
8D	8.AA]	8a]	8AA
16C#Jk	.	(48aLLL	16GGJk
.	.	48g	.
.	.	48f#JJ	.
16r	16r	48gLL	16r
.	.	48a	.
.	.	48bJJ	.
8r	8r	48cc#LL	8r
.	.	48dd	.
.	.	48eeJJ	.
.	.	48ff#LL	.
.	.	48aa	.
.	.	48ggJJJ)	.
=411	=411	=411	=411
*-	*-	*-	*-
